X:282
T: SIND WIR GESCHIEDEN
N: Z0280
O: Europa, Mitteleuropa, Deutschland
R: Lyrisches Lied, Romanze, verlassene Liebe
M: 2/4
L: 1/8
K: A
=G | =c2d2 | e2de | =fed=c | ddd
=G | =c2d2 | e=f=gf | e=cdB | =c3
d | d2d2 | BA=Ge | e2e2 | =cBA
A | =fed=c | B3d | =cABG | A3

@@@ Tune index: 10040
